!! 00046] TT[KA
!! NN
!!!OTL: Changge yao shu liu sanjie
!!!ARE: Asia, China,ÿGuangxi, Yishan
!! Ethnic Group: Han
!! II, 491
!!!SCT: C0257
!!!YEM: Copyright 1995, estate of Helmut Schaffrath.
**kern
*ICvox
*Ivox
*M2/4
*k[]
*C:
{8g
8e
8e
8g
=1
4g
8g
16a
16cc
=2
8cc
[4.dd
=3
8dd]
8gg
8a
8cc}
=4
{8cc
8cc
8dd
16cc
16dd
=5
8a
8g
4g}
=6
{8dd
8dd
8a
8g
=7
8g
8cc
8dd
8cc
=8
16cc
16dd
4.a
=9
4.g
16a
16cc}
=10
{8cc
16dd
16cc
16a
16cc
16a
16g
=11
[2g
=12
2g]}
=13
{8e
8g
8g
8g
=14
8a
8g
8g
16a
16cc
=15
8cc
[4.dd
=16
8dd]
8gg
8a
8cc}
=17
{8cc
8cc
8dd
8dd
=18
8a
8g
4g}
=19
{8dd
8dd
8a
8gg
=20
8g
8cc
8cc
8cc
=21
16dd
16cc
4.a
=22
4.g
16a
16cc}
=23
{8cc
16dd
16cc
16a
16cc
16a
16g
=24
[2g
=25
2g]}
==
!!!AGN: Shange. Chang shangeshou
!! Der Sage nach sind alle Berglieder von einer heiligen Saengerin,
!!    so auch dieses.
!!    Vereinzelt Verzierungen.
!!!ONB: ESAC (Essen Associative Code) Database: CHINA
!!!AMT: simple duple
!!!AIN: vox
!!!EED: Helmut Schaffrath
!!!EEV: 1.0
*-
!!!ONB: Tied note syntax fixed by Craig Sapp, 2004/05/03/
